!!!OTL: UND IN DEM SCHNEEGEBIRGE
!!!ARE: Europa, Mitteleuropa, Deutschland, Schlesien, Breslau
!!!SCT: E0429D
!!!YEM: Copyright 1995, estate of Helmut Schaffrath.
**kern
*ICvox
*Ivox
*M3/4
*k[b-]
*F:
{8f
=1
8f
8a
4cc
4cc
=2
4dd
4cc
8r}
{8b-
=3
8a
8g
8f
8a
8cc
8a
=4
2g
8r}
{8g
=5
8b-
8b-
4g
4g
=6
8f
8a
4cc
8r}
{8ff
=7
8cc
8b-
4a
4g
=8
2f
8r}
==
!!!AGN: Liebes - Lied
!!!ONB: ESAC (Essen Associative Code) Database: ERK1
!!!AMT: simple triple
!!!AIN: vox
!!!EED: Helmut Schaffrath
!!!EEV: 1.0
*-
